X:1
T:Ottawa (Crawford), 76.76 D
T:Ottawa (Crawford), 76.76 D
T:Edward Patrick Crawford (1846-1912)
T:Public Domain Courtesy of the Cyber Hymnal™
C:Edward Patrick Crawford (1846-1912)
Z:Public Domain
Z:Courtesy of the Cyber Hymnal™
%%score ( 1 2 ) ( 3 4 )
L:1/8
Q:1/2=112
M:4/2
K:Db
V:1 treble 
V:2 treble 
V:3 bass 
V:4 bass 
V:1
 [FA]4 | [DF]4 [FA]4 [Dd]4 [Dc]4 | [DB]8 [DA]4 [DA]4 | [CG]4 [DF]4 E4 [DF]4 | [CA]12 [EG]4 | %5
 [DF]6 [DF]2 [EF]4 [EF]4 | [DF]4 [DB]8 [DF]4 | [DA]4 [D=G]4 [DF]4 [DG]4 | [CA]12 [CA]4 | %9
 [Dd]4 D4 [DE]4 [DB]4 | [DB]4 [DA]8 [DA]4 | [CG]4 [DF]4 E4 [DE]4 | [CA]12 [EA]4 | %13
 [Dd]6 [DA]2 [DF]4 [DE]4 | D4 [DB]8 [DG]4 | [DF]4 [DF]4 [CF]6 [CE]2 | D12 |] %17
V:2
 x4 | x16 | x16 | x8 E4 x4 | x16 | x16 | x16 | x16 | x16 | x4 D4 x8 | x16 | x8 E4 x4 | x16 | x16 | %14
 D4 x12 | x16 | D12 |] %17
V:3
 [D,D]4 | [D,A,]4 [D,D]4 [F,A,]4 [F,A,]4 | G,8 [F,A,]4 [F,A,]4 | %3
 [E,A,]4 [D,A,]4 [C,A,]4 [B,,=G,]4 | [A,,A,]12 [C,A,]4 | [D,A,]6 [D,A,]2 [C,=A,]4 [C,A,]4 | %6
 [B,,B,]4 [B,,B,]8 [B,,B,]4 | [E,B,]4 [E,B,]4 [E,A,]4 [E,B,]4 | A,12 [G,A,]4 | %9
 [F,A,]4 [F,A,]4 [G,B,]4 G,4 | G,4 [F,A,]8 [F,A,]4 | [E,A,]4 [D,A,]4 [C,A,]4 [B,,=G,]4 | %12
 [A,,A,]12 [G,A,]4 | [F,A,]6 [F,A,]2 [F,A,]4 [F,=B,]4 | [G,B,]4 [E,G,]8 [E,B,]4 | %15
 A,4 [A,,A,]4 [A,,G,]6 [A,,G,]2 | [D,F,]12 |] %17
V:4
 x4 | x16 | G,8 x8 | x16 | x16 | x16 | x16 | x16 | A,12 x4 | x12 G,4 | G,4 x12 | x16 | x16 | x16 | %14
 x16 | A,4 x12 | x12 |] %17

